src/16/devices/drive-removable-media-usb-pendrive.svg

<svg xmlns="http://www.w3.org/2000/svg" width="16" height="16" viewBox="0 0 16 16">
 <defs>
  <style id="current-color-scheme" type="text/css">
   .ColorScheme-Text { color:#727272; } .ColorScheme-Highlight { color:#5294e2; }
  </style>
 </defs>
 <path style="fill:currentColor" class="ColorScheme-Text" d="M 4.8398438 1 C 4.5585938 1.0469 3.9960938 1.25 3.9960938 2 L 3.9960938 11 C 3.9960938 11 3.9960938 12 4.9960938 12 L 10.996094 12 C 11.996094 12 11.996094 11 11.996094 11 L 11.996094 2 C 11.996094 1 10.996094 1 10.996094 1 L 4.9960938 1 C 4.9960938 1 4.9335938 0.9844 4.8398438 1 z M 4.9960938 13 L 4.9960938 15 L 10.996094 15 L 10.996094 13 L 4.9960938 13 z"/>
</svg>

<svg xmlns="http://www.w3.org/2000/svg" width="16" height="16"><defs><style id="current-color-scheme" type="text/css"></style></defs><path d="M4.84 1c-.281.047-.844.25-.844 1v9s0 1 1 1h6c1 0 1-1 1-1V2c0-1-1-1-1-1h-6S4.934.984 4.84 1zm.156 12v2h6v-2h-6z" fill="currentColor" color="#727272"/></svg>
